X:1
T:Married Life (Theme from Disney's UP)
T:Married Life (Theme from Disney's UP)
%%score 1 2 3
L:1/8
Q:1/4=130
M:3/4
K:F
V:1 treble transpose=-2 nm="B♭ Clarinet" snm="B♭ Cl."
V:2 bass nm="Bassoon" snm="Bsn."
V:3 treble nm="Flute" snm="Fl."
V:1
[K:G] z6 | z6 | z6 | z2 z!mf! g bg |: (f6 | f2) z g bg | e2 z e ge | d4 z e | b2 a2 z e | %9
 b2 a2 f/g/f | e6- |1 e2 z G AG | F6- | F2 z F AF | D2 z D FD | C2 z C DC | z2 B,2 C2 | D3 E F2 | %18
 z2 d2 e2 | f3 g bg :| z2 z G AG | F6- | F2 z F AF |!p! D2 z D FD | C2 z C DC | z2 B,2 C2 | %26
 D3 E F2 | z2 D2 E2 | F3 z z2 | z6 | z6 | z6 | z6 | z6 | z6 | z6 | z6 | z6 | z6 | z6 | z6 | z6 | %42
!f! c2 B2 z2 | e'2 d'2 z2 |!p! AB cd ef |!f! g6 | b2 a2 z g | b2 _a2 e2 |[Q:1/4=95] f4 =f2- | %49
 f2 !fermata!e4 | z6 | z2 z g bg | f6- | f2 z g bf | e2 z e ge | d4 z2 |!p! B6 | B6 | B6 | %59
 B2 z G AG | F6- | F2 z!mf! f af | d2 z d fd | c6 | z2 B2 c2 | d3 e f2 | z2 d2 e2 | %67
 f3!mf![Q:1/4=130] g bg | (f6 | f2) z g2 g | e2 z e ge | d4 z e | b2 a2 z e | b2 a2 f/g/f | e6- | %75
 e2 z G AG | F6- | F2 z F AF | D2 z D FD | C2 z C DC | z2 B,2 C2 | D3 E F2 | z2 d2 e2 | %83
 f3!ff! g bg | d'6- | d'2 z4 |] %86
V:2
!mf! F,,2 A,,2 A,,2 | E,,2 A,,2 A,,2 | D,,2 A,,2 A,,2 | C,,2 D,,2 E,,2 |: F,,2 A,,2 A,,2 | %5
 E,,2 A,,2 A,,2 | D,,2 A,,2 A,,2 | C,,2 D,,2 E,,2 | =B,,2 D,2 D,2 | B,,2 D,2 D,2 | =B,,2 D,2 D,2 |1 %11
 z6 | z6 | z6 | z6 | z6 | z6 | z6 | z6 | z6 :| =B,,2 D,2 D,2 | E,2 G,2 G,2 | D,2 G,2 G,2 | %23
 C,2 D,2 D,2 | C,2 F,2 F,2 | F,2 A,2 A,2 | F,2 A,2 A,2 | C,2 E,2 E,2 | C,6 | z6 | z6 | z6 | z6 | %33
 z6 | z6 | z6 | z6 | z6 | z6 | z6 | z6 | z6 |!pp!"_cresc." C,2 E,2 E,2 | G,,2 E,2!mf! E,2 | %44
 F,,2 F,2 F,2 | D,2 F,2 F,2 | F,,2 F,2 F,2 | D,,2 F,2 F,2 | z6 | !fermata!z6 | z6 | z6 | F,6 | %53
 E,6 | D,6 | C,4 z!f! C, | A,2 G,2 z D, | A,2 G,2 F,2 | D,6- | D,2 z4 | z6 | z6 | z6 | z6 | z6 | %65
 z6 | z6 | C,,2 D,,2 E,,2 | F,,2 A,,2 A,,2 | E,,2 A,,2 A,,2 | D,,2 A,,2 A,,2 | C,,2 D,,2 E,,2 | %72
 =B,,2 D,2 D,2 | B,,2 D,2 D,2 | =B,,2 D,2 D,2 | =B,,2 D,2 D,2 | E,2 G,2 G,2 | D,2 G,2 G,2 | %78
 C,2 D,2 D,2 | B,,2 F,2 F,2 | F,2 A,2 A,2 | F,2 A,2 A,2 | C,2 E,2 E,2 | C,6 | C,2 D,2 E,2 | %85
 F,2 z4 |] %86
V:3
 z6 | z6 | z6 | z2 z!mf! f af |: e4 d2 | c2 z f af | d2 z d fd | c2 B2 Ad |!8va(! a'2 g'2 z d' | %9
 a'2 g'2 e'/f'/e' | d'6- |1 z6!8va)! | z6 | z6 | z6 | z6 | z6 | z6 | z6 | z6 :| d2 z f gf | e6- | %22
 e2 z e ge | c2 z c ec | B2 z B cB | z2 A2 B2 | c3 d e2 | z2 c2 d2 | e3!ff! f af | e6- | %30
 e2 z f ae | d2 z f ad' | e'4 z d' | f'2 e'2 z d' | a2 =b2[K:treble+8] d2 |{/de} f6 | %36
{/fe} d2 z f gf | e6- | e2 z e ge | c2 z c ec | Bc de fg | Tb4- b[K:treble]g | b2 a2 z g | %43
 d2 c2 g2 |!f! a6 |!p! fe dc BA |!f! A2 G2 z F | A2 _G2 D2 | =B6- | B2 !fermata!z4 | z6 | z6 | z6 | %53
 z6 | z6 | z6 | z6 | z6 | z6 | z2 z f gf | e6- | e2 z4 | z6 | z6 | z2 a2 b2 | c'3 d' e'2 | %66
 z2 c2 d2 | e3!mf! f af | e4 d2 | c2 z f af | d2 z d fd | c2 B2 Ad | a2 g2 z d | a2 g2 e/f/e | %74
 d6- | d2 z f gf | e6- | e2 z e ge | c2 z c ec | B2 z B cB | z2 A2 B2 | c3 d e2 | z2 c2 d2 | %83
 e3!ff! f af | c'6- | c'2 z4 |] %86

